public/library/optimistic-icon-light.svg

<svg width="256" height="256" viewBox="0 0 256 256" fill="none" xmlns="http://www.w3.org/2000/svg">
<path d="M53.1974 121.677C53.1977 120.245 53.4802 118.828 54.0287 117.506C54.5772 116.184 55.3809 114.984 56.3937 113.974C57.4065 112.964 58.6084 112.165 59.9304 111.622C61.2524 111.079 62.6684 110.803 64.0972 110.809L82.168 110.868C85.0493 110.868 87.8126 112.015 89.85 114.056C91.8874 116.098 93.032 118.866 93.032 121.753V190.216C95.0673 189.612 97.672 188.967 100.538 188.291C102.524 187.823 104.294 186.697 105.561 185.095C106.827 183.493 107.517 181.509 107.517 179.465V94.5471C107.517 91.6602 108.662 88.8915 110.699 86.8499C112.737 84.8084 115.5 83.6611 118.381 83.6606H136.507C139.388 83.6611 142.152 84.8084 144.189 86.8499C146.226 88.8915 147.371 91.6602 147.371 94.5471V173.364C147.371 173.364 151.905 171.526 156.32 169.658C157.96 168.963 159.36 167.799 160.345 166.313C161.329 164.826 161.855 163.081 161.856 161.297V67.335C161.856 64.4487 163.001 61.6805 165.037 59.6394C167.074 57.5982 169.837 56.4512 172.718 56.4506H190.825C193.704 56.4534 196.465 57.6014 198.5 59.6423C200.535 61.6833 201.678 64.4501 201.678 67.335V144.709C217.376 133.311 233.285 119.602 245.91 103.118C247.742 100.725 248.954 97.9151 249.438 94.939C249.923 91.9628 249.664 88.9128 248.686 86.061C242.842 69.2159 233.552 53.7786 221.411 40.7369C209.27 27.6952 194.546 17.3364 178.18 10.3232C161.814 3.31009 144.166 -0.202912 126.367 0.00905126C108.569 0.221015 91.0098 4.15326 74.8147 11.5542C58.6196 18.9551 44.145 29.6617 32.317 42.9888C20.489 56.3159 11.5682 71.9701 6.12532 88.9496C0.68246 105.929 -1.16254 123.86 0.708385 141.595C2.5793 159.33 8.12494 176.478 16.9904 191.943C18.535 194.61 20.8074 196.781 23.5407 198.2C26.274 199.618 29.3546 200.226 32.4206 199.951C35.8458 199.649 40.1104 199.222 45.1807 198.626C47.3874 198.375 49.4247 197.319 50.9045 195.66C52.3844 194 53.2035 191.854 53.2058 189.629V121.677" fill="#12161C"/>
<path d="M52.8125 231.474C71.8982 245.384 94.4529 253.734 117.981 255.599C141.509 257.464 165.094 252.772 186.126 242.041C207.158 231.311 224.816 214.96 237.149 194.799C249.481 174.637 256.006 151.451 256.001 127.805C256.001 124.846 255.864 121.934 255.668 119.031C208.924 188.879 122.615 221.532 52.8125 231.474Z" fill="#FF0823"/>
</svg>

<svg xmlns="http://www.w3.org/2000/svg" width="256" height="256" fill="none" viewBox="0 0 256 256"><path fill="#12161c" d="M53.197 121.677a10.9 10.9 0 0 1 3.197-7.703 10.84 10.84 0 0 1 7.703-3.165l18.071.059c2.881 0 5.645 1.147 7.682 3.188a10.9 10.9 0 0 1 3.182 7.697v68.463c2.035-.604 4.64-1.249 7.506-1.925a9.05 9.05 0 0 0 5.023-3.196 9.08 9.08 0 0 0 1.956-5.63V94.547c0-2.887 1.145-5.656 3.182-7.697a10.86 10.86 0 0 1 7.682-3.19h18.126c2.881.001 5.645 1.148 7.682 3.19a10.9 10.9 0 0 1 3.182 7.697v78.817s4.534-1.838 8.949-3.706a9.08 9.08 0 0 0 5.536-8.361V67.335c0-2.886 1.145-5.654 3.181-7.696a10.86 10.86 0 0 1 7.681-3.188h18.107c2.879.002 5.64 1.15 7.675 3.191a10.9 10.9 0 0 1 3.178 7.693v77.374c15.698-11.398 31.607-25.107 44.232-41.591a18.297 18.297 0 0 0 2.776-17.057 128.2 128.2 0 0 0-27.275-45.324 127.9 127.9 0 0 0-43.231-30.414A127.7 127.7 0 0 0 126.367.01a127.7 127.7 0 0 0-51.552 11.545A127.9 127.9 0 0 0 32.317 42.99a128.2 128.2 0 0 0-26.192 45.96A128.36 128.36 0 0 0 16.99 191.944a16.2 16.2 0 0 0 6.55 6.257 16.15 16.15 0 0 0 8.88 1.751c3.426-.302 7.69-.729 12.76-1.325a9.04 9.04 0 0 0 5.724-2.966 9.08 9.08 0 0 0 2.302-6.031v-67.952"/><path fill="#ff0823" d="M52.813 231.474a127.725 127.725 0 0 0 133.314 10.567 128 128 0 0 0 51.022-47.242 128.35 128.35 0 0 0 18.852-66.994c0-2.959-.137-5.871-.333-8.774-46.744 69.848-133.053 102.501-202.855 112.443"/></svg>
